X:1
T:Title
%%score { ( 1 2 ) | ( 3 4 ) }
L:1/8
Q:1/4=112
M:4/4
K:C
V:1 bass nm="Grand Piano"
V:2 bass 
V:3 bass 
V:4 bass 
V:1
 z[K:treble] G2 A [EG]FEF | [EG]2 G2 c4 | z[K:treble] G2 A [EG]FEF | %3
 [B,FG]2 [B,FG]2[K:bass] [F,B,D]4 | z[K:treble] F2 G [DF]EDE | [G,DF]2 [G,DF]2 [B,FB]4 | %6
 z G2 A [FG]FED | [G,CE]2 [F,B,D]2 [E,G,C]4 | z[K:treble] c2 d cBAB | [Ac]2 [Ad]2 [Ac]4 | %10
 z c2 d cBAG | [GB]2 B2 F4 | z B2 c BAGA | [FGB]2 c2 B4 | z B2 c [FB]AGF | A2 G2 E4 | %16
 z G2 A [EG]FEF | [G,EG]2 [G,EG]2 [FA]4 | z A2 B [FA]GFG | [FA]2 [FA]2 [GB]4- | %20
 [GB] z AB [Ac]2 [Ac]2 | z2 AB [Ac]2 [Ac]2 | z2[K:treble] c2 e3 d | [Ec]2 [Fd]2 [Ec]4 |] %24
V:2
 C,4[K:treble] z4 | x8 | C,4[K:treble] z4 | x4[K:bass] x4 | G,4[K:treble] z4 | x8 | B,4 z4 | x8 | %8
 F,4[K:treble] z4 | x8 | F,4 z4 | x8 | G,4 z4 | x8 | G,4 z4 | x8 | G,4 z4 | x8 | F,4 z4 | x8 | %20
 z F,3 z4 | F,4 z4 | C,4[K:treble] z4 | x8 |] %24
V:3
 z E2 F z DCD | z2 E2 [G,CE]4 | z[K:treble] E2 F[K:bass] z DCD | G,2 G,2 G,,4 | z D2 E z CB,C | %5
 G,,2 G,,2 G,4 | z[K:treble] F2 F[K:bass] z DCB, | G,,2 G,,2 C,4 | z[K:treble] A2 A .A2 z2 | %9
 [F,,F,]4 [F,A,]4 | z[K:treble] A2 A .A2 z2 | z2 G2 [G,B,D]4 | z[K:treble] [FG]2 F FFFF | %13
 z2[K:treble] [FG]2 [G,B,FG]4 | z[K:treble] F2 F[K:bass] z[K:treble] F .F2 | %15
 [F,CF]2 [G,CE]2 [C,G,C]4 | z E2 F z DCD | C,2 C,2 [F,,F,]4 | z[K:treble] F2 G[K:bass] [F,,F,]4 | %19
 [F,,F,]4 [G,,G,]4- | [G,,G,] z[K:treble] FG[K:bass] [F,,F,]2 [F,,F,]2 | %21
 z2[K:treble] FG[K:bass] [F,,F,]2 [F,,F,]2 | z2[K:treble] E2 [G,CG]3 [G,B,G] | %23
 [E,,C,]2 [G,B,]2 [C,G,]4 |] %24
V:4
 C,,4 [C,G,]4 | [C,,C,]4 z4 | C,,4[K:treble][K:bass] [C,G,]4 | x8 | G,,4 [G,,G,]4 | x8 | %6
 G,4[K:treble][K:bass] [G,,G,]4 | x8 | F,,4[K:treble] [A,C]4 | x8 | F,,4[K:treble] [A,C]4 | %11
 [G,,F,]4 z4 | G,,4[K:treble] [G,B,]4 | [G,,G,]4[K:treble] z4 | %14
 G,,4[K:treble][K:bass] [G,,G,]4[K:treble] | x8 | C,4 [C,G,]4 | x8 | F,,4[K:treble][K:bass] z4 | %19
 x8 | z F,,3[K:treble][K:bass] z4 | F,,4[K:treble][K:bass] z4 | C,,4[K:treble] z4 | x8 |] %24

